logos/haiku.svg

<?xml version="1.0" encoding="UTF-8"?>
<svg width="512px" height="132px" viewBox="0 0 512 132" version="1.1" xmlns="http://www.w3.org/2000/svg" xmlns:xlink="http://www.w3.org/1999/xlink" preserveAspectRatio="xMidYMid">
    <defs>
        <linearGradient x1="49.0838061%" y1="4.31143537%" x2="49.0838061%" y2="95.7864712%" id="linearGradient-1">
            <stop stop-color="#F1CB2B" offset="0%"></stop>
            <stop stop-color="#D62B5F" offset="100%"></stop>
        </linearGradient>
        <linearGradient x1="143.212497%" y1="-204.866615%" x2="143.212497%" y2="86.0496667%" id="linearGradient-2">
            <stop stop-color="#F1CB2B" offset="0%"></stop>
            <stop stop-color="#D62B5F" offset="100%"></stop>
        </linearGradient>
    </defs>
    <g>
        <path d="M275.942805,39.1872015 C299.741082,39.1872015 309.206181,47.5707154 309.206181,62.309535 L309.206181,62.309535 L309.206181,98.0067605 C309.206181,104.497406 309.476861,109.230145 311.64041,114.503487 L311.64041,114.503487 L285.678584,114.503487 C284.326319,112.475279 283.379696,110.041429 282.838714,107.472238 C278.106354,113.962505 271.480747,116.396355 262.420911,116.396355 C247.141488,116.396355 238.487294,107.066597 238.487294,93.9503437 C238.487294,79.4822047 246.735847,71.2336518 270.398783,68.2588199 L270.398783,68.2588199 L282.162771,66.7715934 L282.162771,63.9321017 C282.162771,58.9290614 280.810505,56.900853 275.537164,56.900853 C270.263443,56.900853 268.370575,59.0640225 268.235234,63.6614212 L268.235234,63.6614212 L241.327165,63.6614212 C241.867767,47.9763571 254.037397,39.1872015 275.942805,39.1872015 Z M466.705848,41.2154098 L466.705848,83.9442631 C466.705848,91.110852 469.54534,93.4093618 474.545726,93.4093618 C481.035993,93.4093618 484.959723,88.0006798 484.959723,80.8340908 L484.959723,80.8340908 L484.959723,41.2154098 L512.001238,41.2154098 L512.001238,114.503487 L486.309335,114.503487 L486.309335,105.30869 C480.630352,112.88092 473.870921,116.396355 463.593401,116.396355 C450.749345,116.396355 439.660543,108.959465 439.660543,90.5698701 L439.660543,90.5698701 L439.660543,41.2154098 L466.705848,41.2154098 Z M172.585686,19.8509832 L172.585686,54.0609822 L200.981361,54.0609822 L200.981361,19.8509832 L229.647717,19.8509832 L229.647717,114.503487 L200.981361,114.503487 L200.981361,76.7776741 L172.585686,76.7776741 L172.585686,114.503487 L143.91933,114.503487 L143.91933,19.8509832 L172.585686,19.8509832 Z M346.423994,41.2154098 L346.423994,114.503487 L319.380584,114.503487 L319.380584,41.2154098 L346.423994,41.2154098 Z M384.322678,19.8509832 L384.322678,65.1490267 L406.090851,41.2154098 L436.38129,41.2154098 L409.472462,68.7998018 L437.598215,114.503487 L406.363806,114.503487 L391.082109,87.5950381 L384.322678,94.6262868 L384.322678,114.503487 L357.27851,114.503487 L357.27851,19.8509832 L384.322678,19.8509832 Z M282.162771,82.051395 L276.213107,82.9976395 C268.505915,84.2145645 265.801384,86.7837548 265.801384,90.8405506 C265.801384,94.7616271 268.370575,96.7898354 272.15669,96.7898354 C278.106354,96.7898354 282.162771,92.7334187 282.162771,87.1893964 L282.162771,87.1893964 L282.162771,82.051395 Z M332.902099,5.51795696 C340.879971,5.51795696 347.776259,11.4675451 347.776259,19.4453416 C347.776259,27.2878736 340.879971,33.3728778 332.902099,33.3728778 C325.059567,33.3728778 318.028318,27.2878736 318.028318,19.4453416 C318.028318,11.4675451 325.059567,5.51795696 332.902099,5.51795696 Z" fill="#000000"></path>
        <g>
            <path d="M91.9403305,0.396484421 L91.1226024,0.105976744 C90.765107,0.0201096053 90.3958593,-0.0134790416 90.0262325,0.00722005683 C89.4469611,0.0396334802 88.8824747,0.204847163 88.3767494,0.490009468 C82.7682794,2.77877626 76.5354245,5.33716209 70.3325189,7.94513476 C69.2145401,8.41507253 69.2194685,9.99768162 70.3385846,10.4636767 L85.3867533,16.7283006 C85.8970278,16.940599 86.2291232,17.4391212 86.2302605,17.9914763 C86.2378426,22.9202122 86.3034277,27.5339123 86.2420128,32.4694721 C86.2351889,33.0123495 85.9065054,33.4991196 85.4060876,33.7095225 L45.7858902,50.3912519 C44.8840009,50.7707354 43.8865773,50.1084401 43.8865773,49.1299717 L43.8880938,11.9749763 C43.8880938,10.5495439 43.0904582,9.46602566 41.8928675,8.86218822 C41.7787571,8.80096287 41.6631302,8.74311154 41.5406795,8.69208409 L21.7312253,0.301215494 C21.1972189,0.074511082 20.6182886,-0.0265202318 20.0390929,0.00593110198 C19.4598594,0.0383445254 18.8958279,0.203406567 18.3905197,0.488303499 C12.9992007,2.68862525 6.5634112,5.34353104 0.838719166,7.73681691 C-0.268500631,8.19970334 -0.282584358,9.7611205 0.815021352,10.2463362 L15.5620599,16.766211 C16.0575114,16.9849542 16.3771343,17.4758944 16.3771343,18.0176345 L16.3771343,65.436767 C16.4926853,65.9538653 16.7017993,66.3974174 16.983815,66.7632531 C17.2712899,67.2428202 17.7441467,67.6647633 18.455157,68.001408 L62.0305123,88.7380378 L62.265178,88.829781 C62.7383002,89.0663422 63.2724583,89.1975123 63.8354282,89.1975123 L64.08867,89.1887929 C64.9890428,89.1197959 65.8295172,88.7122587 66.4417708,88.048826 C67.0540243,87.3850143 67.3921854,86.5145907 67.3887735,85.6115641 L67.3887735,70.9807892 C67.3887735,70.3844581 67.7743226,69.8571239 68.3426001,69.6766702 L84.477661,64.5489045 C85.360216,64.2683673 86.2605889,64.9272507 86.2602098,65.8534027 L86.2408754,128.746059 C86.2404963,129.302205 86.577141,129.803381 87.0919647,130.013405 L87.8384212,130.318205 C88.0783943,130.415635 88.3274659,130.488423 88.5818449,130.535811 C89.6054267,130.885345 90.7203726,130.855396 91.7234828,130.450891 L111.47937,122.369524 C112.237957,122.037807 112.753539,121.665527 113.076915,121.246995 C113.571647,120.726485 113.876067,120.041064 113.876067,119.059563 L113.876067,11.9783503 C113.876067,10.9152658 113.391572,10.0460553 112.65156,9.42519612 C112.331596,9.12414934 111.954008,8.8740921 111.529032,8.69379006 L91.9403305,0.396484421 Z" fill="url(#linearGradient-1)"></path>
            <path d="M43.9707974,101.85884 C43.9756669,101.325819 43.670867,100.838291 43.1897835,100.609691 L21.2021851,90.1600583 C20.7708402,89.9784673 20.3077263,89.8840703 19.8396461,89.882525 C19.371566,89.8806583 18.9078076,89.9720225 18.4752116,90.1505807 C18.0425777,90.3295179 17.6497118,90.5922372 17.3192845,90.9235745 C16.9888192,91.2552908 16.7273888,91.6488011 16.5500438,92.0821174 C16.4787722,92.2538517 16.4210346,92.4301352 16.3771343,92.6094516 L16.3771343,128.739993 C16.3771343,129.285904 16.7014581,129.779497 17.2024066,129.995966 L18.3531021,130.493351 C18.4710794,130.541497 18.5914071,130.583578 18.7137062,130.619214 C19.650928,131.075276 20.7684518,131.146548 21.8111405,130.721572 L41.3973781,122.917329 C42.1047868,122.626177 42.7102165,122.131067 43.1363298,121.495688 C43.562064,120.85993 43.7899057,120.112336 43.7906639,119.346924 C43.8008998,119.241533 43.8043117,119.136142 43.8043117,119.028856 L43.9707974,101.85884 Z" fill="url(#linearGradient-2)"></path>
        </g>
    </g>
</svg>

<svg width="512" height="132" xmlns="http://www.w3.org/2000/svg" preserveAspectRatio="xMidYMid">
	<defs>
		<linearGradient x1="49.084%" y1="4.311%" x2="49.084%" y2="95.786%" id="a">
			<stop stop-color="#F1CB2B" offset="0%"/>
			<stop stop-color="#D62B5F" offset="100%"/>
		</linearGradient>
		<linearGradient x1="143.212%" y1="-204.867%" x2="143.212%" y2="86.05%" id="b">
			<stop stop-color="#F1CB2B" offset="0%"/>
			<stop stop-color="#D62B5F" offset="100%"/>
		</linearGradient>
	</defs>
	<path d="M275.943 39.187c23.798 0 33.263 8.384 33.263 23.123v35.697c0 6.49.27 11.223 2.434 16.496H285.68c-1.353-2.028-2.3-4.462-2.84-7.03-4.733 6.49-11.358 8.923-20.418 8.923-15.28 0-23.934-9.33-23.934-22.446 0-14.468 8.249-22.716 31.912-25.691l11.764-1.487v-2.84c0-5.003-1.352-7.031-6.626-7.031s-7.166 2.163-7.302 6.76h-26.908c.54-15.685 12.71-24.474 34.616-24.474Zm190.763 2.028v42.73c0 7.166 2.84 9.464 7.84 9.464 6.49 0 10.414-5.408 10.414-12.575V41.215H512v73.288H486.31v-9.194c-5.679 7.572-12.438 11.087-22.716 11.087-12.844 0-23.932-7.437-23.932-25.826V41.215h27.045Zm-294.12-21.364v34.21h28.395v-34.21h28.667v94.652H200.98V76.778h-28.395v37.725h-28.667V19.851h28.667Zm173.838 21.364v73.288h-27.043V41.215h27.043Zm37.899-21.364v45.298l21.768-23.934h30.29L409.472 68.8l28.126 45.703h-31.234l-15.282-26.908-6.76 7.031v19.877H357.28V19.851h27.044Zm-102.16 62.2-5.95.947c-7.707 1.217-10.412 3.786-10.412 7.843 0 3.92 2.57 5.949 6.356 5.949 5.95 0 10.006-4.057 10.006-9.6V82.05Zm50.74-76.533c7.977 0 14.873 5.95 14.873 13.927 0 7.843-6.896 13.928-14.874 13.928-7.842 0-14.874-6.085-14.874-13.928 0-7.977 7.032-13.927 14.874-13.927Z"/>
	<path d="m91.94.396-.817-.29a3.787 3.787 0 0 0-2.746.384 1866.389 1866.389 0 0 0-18.044 7.455c-1.118.47-1.114 2.053.006 2.519l15.048 6.264c.51.213.842.711.843 1.263.008 4.93.073 9.543.012 14.478a1.364 1.364 0 0 1-.836 1.24l-39.62 16.682c-.902.38-1.9-.283-1.9-1.261l.002-37.155c0-1.425-.798-2.509-1.995-3.113a3.983 3.983 0 0 0-.352-.17L21.73.302a3.788 3.788 0 0 0-3.34.186C12.999 2.688 6.563 5.344.839 7.737-.27 8.2-.283 9.76.815 10.247l14.747 6.52c.496.218.815.709.815 1.25v47.42c.116.517.325.96.607 1.326.287.48.76.902 1.471 1.238l43.576 20.737.234.092a3.503 3.503 0 0 0 1.57.368l.254-.01a3.574 3.574 0 0 0 3.3-3.576V70.98c0-.597.385-1.124.954-1.304l16.135-5.128a1.368 1.368 0 0 1 1.782 1.304l-.02 62.893c0 .556.337 1.057.852 1.267l.746.305c.24.098.49.17.744.218 1.023.35 2.138.32 3.141-.085l19.756-8.081c.759-.332 1.275-.704 1.598-1.123.495-.52.8-1.206.8-2.187V11.978c0-1.063-.485-1.932-1.225-2.553a3.804 3.804 0 0 0-1.123-.731L91.94.396Z" fill="url(#a)"/>
	<path d="M43.97 101.859a1.37 1.37 0 0 0-.78-1.25L21.202 90.16a3.542 3.542 0 0 0-4.652 1.922 3.624 3.624 0 0 0-.173.527v36.131c0 .546.324 1.04.825 1.256l1.151.497c.118.048.238.09.36.126a3.786 3.786 0 0 0 3.098.103l19.586-7.805a3.866 3.866 0 0 0 2.394-3.57c.01-.105.013-.21.013-.318l.167-17.17Z" fill="url(#b)"/>
</svg>
